public/assets/badges/firstProjectLaunched.svg

<svg fill="none" height="191" viewBox="0 0 191 191" width="191" xmlns="http://www.w3.org/2000/svg" xmlns:xlink="http://www.w3.org/1999/xlink"><filter id="a" color-interpolation-filters="sRGB" filterUnits="userSpaceOnUse" height="158.775" width="168.417" x="11.2632" y="18.2717"><feFlood flood-opacity="0" result="BackgroundImageFix"/><feColorMatrix in="SourceAlpha" type="matrix" values="0 0 0 0 0 0 0 0 0 0 0 0 0 0 0 0 0 0 127 0"/><feOffset dy="4"/><feColorMatrix type="matrix" values="0 0 0 0 0 0 0 0 0 0 0 0 0 0 0 0 0 0 0.15 0"/><feBlend in2="BackgroundImageFix" mode="normal" result="effect1_dropShadow"/><feBlend in="SourceGraphic" in2="effect1_dropShadow" mode="normal" result="shape"/></filter><filter id="b" color-interpolation-filters="sRGB" filterUnits="userSpaceOnUse" height="82.4079" width="80.4079" x="55.3594" y="55.241"><feFlood flood-opacity="0" result="BackgroundImageFix"/><feColorMatrix in="SourceAlpha" type="matrix" values="0 0 0 0 0 0 0 0 0 0 0 0 0 0 0 0 0 0 127 0"/><feOffset dy="2"/><feColorMatrix type="matrix" values="0 0 0 0 0 0 0 0 0 0 0 0 0 0 0 0 0 0 0.15 0"/><feBlend in2="BackgroundImageFix" mode="normal" result="effect1_dropShadow"/><feBlend in="SourceGraphic" in2="effect1_dropShadow" mode="normal" result="shape"/></filter><filter id="c" color-interpolation-filters="sRGB" filterUnits="userSpaceOnUse" height="32.6732" width="37.1572" x="76.9849" y="80.3606"><feFlood flood-opacity="0" result="BackgroundImageFix"/><feColorMatrix in="SourceAlpha" type="matrix" values="0 0 0 0 0 0 0 0 0 0 0 0 0 0 0 0 0 0 127 0"/><feOffset dy="1"/><feColorMatrix type="matrix" values="0 0 0 0 0 0 0 0 0 0 0 0 0 0 0 0 0 0 0.15 0"/><feBlend in2="BackgroundImageFix" mode="normal" result="effect1_dropShadow"/><feBlend in="SourceGraphic" in2="effect1_dropShadow" mode="normal" result="shape"/></filter><g filter="url(#a)"><path d="m171.8 65.1145-71.155-42.4316c-3.1548-1.8816-7.0877-1.8816-10.2429-.0001l-71.2588 42.4925c-4.263 2.5421-6.0163 7.8262-4.1185 12.4124l22.7389 54.9513c.7765 1.877 2.106 3.472 3.8115 4.575l48.4687 31.331c3.3302 2.152 7.6176 2.134 10.9291-.047l47.566-31.328c1.633-1.076 2.915-2.607 3.687-4.404l23.64-55.0147c1.98-4.6073.241-9.9684-4.066-12.5368z" fill="#ffed00"/><path d="m171.8 65.1145-71.155-42.4316c-3.1548-1.8816-7.0877-1.8816-10.2429-.0001l-71.2588 42.4925c-4.263 2.5421-6.0163 7.8262-4.1185 12.4124l22.7389 54.9513c.7765 1.877 2.106 3.472 3.8115 4.575l48.4687 31.331c3.3302 2.152 7.6176 2.134 10.9291-.047l47.566-31.328c1.633-1.076 2.915-2.607 3.687-4.404l23.64-55.0147c1.98-4.6073.241-9.9684-4.066-12.5368z" stroke="#eee" stroke-width="6"/></g><g filter="url(#b)"><circle cx="95.5633" cy="95.4449" fill="#54bbab" r="40.2039"/><circle cx="95.5633" cy="95.4449" r="37.7039" stroke="#eee" stroke-width="5"/></g><g filter="url(#c)"><path d="m79.9849 95.5244 11.9779 12.0056 19.1792-24.1694" stroke="#eee" stroke-linecap="round" stroke-width="6"/></g></svg>

<svg width="191" height="191" viewBox="0 0 191 191" fill="none" xmlns="http://www.w3.org/2000/svg">
<g filter="url(#filter0_d)">
<path d="M171.8 65.1145L100.645 22.6829C97.4902 20.8013 93.5573 20.8013 90.4021 22.6828L19.1433 65.1753C14.8803 67.7174 13.127 73.0015 15.0248 77.5877L37.7637 132.539C38.5402 134.416 39.8697 136.011 41.5752 137.114L90.0439 168.445C93.3741 170.597 97.6615 170.579 100.973 168.398L148.539 137.07C150.172 135.994 151.454 134.463 152.226 132.666L175.866 77.6513C177.846 73.044 176.107 67.6829 171.8 65.1145Z" fill="#FFED00"/>
<path d="M171.8 65.1145L100.645 22.6829C97.4902 20.8013 93.5573 20.8013 90.4021 22.6828L19.1433 65.1753C14.8803 67.7174 13.127 73.0015 15.0248 77.5877L37.7637 132.539C38.5402 134.416 39.8697 136.011 41.5752 137.114L90.0439 168.445C93.3741 170.597 97.6615 170.579 100.973 168.398L148.539 137.07C150.172 135.994 151.454 134.463 152.226 132.666L175.866 77.6513C177.846 73.044 176.107 67.6829 171.8 65.1145Z" stroke="#EEEEEE" stroke-width="6"/>
</g>
<g filter="url(#filter1_d)">
<circle cx="95.5633" cy="95.4449" r="40.2039" fill="#54BBAB"/>
<circle cx="95.5633" cy="95.4449" r="37.7039" stroke="#EEEEEE" stroke-width="5"/>
</g>
<g filter="url(#filter2_d)">
<path d="M79.9849 95.5244L91.9628 107.53L111.142 83.3606" stroke="#EEEEEE" stroke-width="6" stroke-linecap="round"/>
</g>
<defs>
<filter id="filter0_d" x="11.2632" y="18.2717" width="168.417" height="158.775" filterUnits="userSpaceOnUse" color-interpolation-filters="sRGB">
<feFlood flood-opacity="0" result="BackgroundImageFix"/>
<feColorMatrix in="SourceAlpha" type="matrix" values="0 0 0 0 0 0 0 0 0 0 0 0 0 0 0 0 0 0 127 0"/>
<feOffset dy="4"/>
<feColorMatrix type="matrix" values="0 0 0 0 0 0 0 0 0 0 0 0 0 0 0 0 0 0 0.15 0"/>
<feBlend mode="normal" in2="BackgroundImageFix" result="effect1_dropShadow"/>
<feBlend mode="normal" in="SourceGraphic" in2="effect1_dropShadow" result="shape"/>
</filter>
<filter id="filter1_d" x="55.3594" y="55.241" width="80.4079" height="82.4079" filterUnits="userSpaceOnUse" color-interpolation-filters="sRGB">
<feFlood flood-opacity="0" result="BackgroundImageFix"/>
<feColorMatrix in="SourceAlpha" type="matrix" values="0 0 0 0 0 0 0 0 0 0 0 0 0 0 0 0 0 0 127 0"/>
<feOffset dy="2"/>
<feColorMatrix type="matrix" values="0 0 0 0 0 0 0 0 0 0 0 0 0 0 0 0 0 0 0.15 0"/>
<feBlend mode="normal" in2="BackgroundImageFix" result="effect1_dropShadow"/>
<feBlend mode="normal" in="SourceGraphic" in2="effect1_dropShadow" result="shape"/>
</filter>
<filter id="filter2_d" x="76.9849" y="80.3606" width="37.1572" height="32.6732" filterUnits="userSpaceOnUse" color-interpolation-filters="sRGB">
<feFlood flood-opacity="0" result="BackgroundImageFix"/>
<feColorMatrix in="SourceAlpha" type="matrix" values="0 0 0 0 0 0 0 0 0 0 0 0 0 0 0 0 0 0 127 0"/>
<feOffset dy="1"/>
<feColorMatrix type="matrix" values="0 0 0 0 0 0 0 0 0 0 0 0 0 0 0 0 0 0 0.15 0"/>
<feBlend mode="normal" in2="BackgroundImageFix" result="effect1_dropShadow"/>
<feBlend mode="normal" in="SourceGraphic" in2="effect1_dropShadow" result="shape"/>
</filter>
</defs>
</svg>
